dist/images/untappd.svg

<?xml version="1.0" encoding="UTF-8" standalone="no"?>
<svg width="120px" height="100px" viewBox="0 0 120 100" version="1.1" xmlns="http://www.w3.org/2000/svg" xmlns:xlink="http://www.w3.org/1999/xlink" xmlns:sketch="http://www.bohemiancoding.com/sketch/ns">
    <!-- Generator: Sketch 3.2.2 (9983) - http://www.bohemiancoding.com/sketch -->
    <title>Artboard</title>
    <desc>Created with Sketch.</desc>
    <defs></defs>
    <g id="Page-1" stroke="none" stroke-width="1" fill="none" fill-rule="evenodd" sketch:type="MSPage">
        <g id="g14" sketch:type="MSLayerGroup" transform="translate(60.500000, 50.500000) scale(1, -1) translate(-60.500000, -50.500000) " fill="#FFFFFF">
            <g id="g16" transform="translate(0.250000, 0.750000)" sketch:type="MSShapeGroup">
                <g id="g102" transform="translate(0.629625, 0.659750)">
                    <path d="M73.75,96.25 C71.105,98.23125 68.92,98.3625 68.325,98.165 C67.73125,97.96625 68.325,96.71125 67.995,96.25 C67.66375,95.78375 66.74,95.91875 66.54,95.52 C66.3425,95.12375 66.54,94.52875 65.87875,93.8025 C65.21875,93.075 44.72,71.51875 42.40875,68.61125 C40.4925,67.025 32.82375,63.52125 31.9625,62.53125 C31.10375,61.5375 2.4725,20.3725 1.55,19.025 C-0.63,15.845 2.6625,9.0725 8.41875,4.9375 C14.47125,0.58375 22.425,-1.31125 25.305,2.05375 C26.36875,3.29125 55.22625,44.30875 55.86625,45.455 C56.5025,46.59875 57.18875,55.0025 58.02875,57.34625 C59.97625,60.50875 73.27,87.1175 73.7275,87.98875 C74.18875,88.855 74.815,88.8725 75.11875,89.1925 C75.4275,89.515 74.98375,90.34125 75.30875,90.8075 C75.63375,91.2775 77.0425,91.49125 76.99,92.115 C76.82125,93.99875 73.75,96.25 73.75,96.25" id="path104"></path>
                </g>
                <g id="g106" transform="translate(40.950625, 79.351750)">
                    <path d="M12.5,15 C11.83375,15.725 12.0275,16.32375 11.825,16.72125 C11.625,17.1175 10.6975,16.9775 10.3625,17.44 C10.02875,17.9025 10.29625,19.30625 9.69,19.46375 C7.85375,19.94125 4.6975,17.7875 4.6975,17.7875 C1.93875,15.955 1.07875,13.93625 1.06625,13.30625 C1.055,12.68 2.44,12.82125 2.76875,12.3525 C3.095,11.885 2.66,11.05375 2.96875,10.73375 C3.27625,10.41125 3.905,10.40125 4.37125,9.53125 C4.545,9.2075 6.5375,5.28875 9.06875,0.34375 C11.925,3.39875 15.0425,6.7075 17.71875,9.5425 C14.82375,12.56875 12.70625,14.77625 12.5,15" id="path108"></path>
                </g>
                <g id="g110" transform="translate(60.921375, 1.005875)">
                    <path d="M57.5,18.75 C56.68625,20.17 27.6,61.20125 26.735,62.19125 C25.86625,63.1825 18.1525,66.64875 16.2225,68.2275 C15.4625,69.16875 12.77,72.07 9.45875,75.58 C5.6025,67.945 1.94375,60.7625 0.175,57.50875 C0.23125,57.41375 0.28875,57.3175 0.33375,57.245 C1.1875,54.9 1.925,46.47625 2.5775,45.33125 C3.225,44.1875 32.52625,3.32 33.48625,1.995 C35.7625,-1.135 43.26875,-0.29375 49.11125,3.7575 C55.25125,8.0175 59.71375,14.9 57.5,18.75" id="path112"></path>
                </g>
            </g>
        </g>
        <g id="Artboard" sketch:type="MSArtboardGroup" transform="translate(0.879625, 0.840250)"></g>
    </g>
</svg>

<?xml version="1.0" encoding="UTF-8" standalone="no"?>
<svg xmlns:sketch="http://www.bohemiancoding.com/sketch/ns" xmlns="http://www.w3.org/2000/svg" height="100px" width="120px" version="1.1" xmlns:xlink="http://www.w3.org/1999/xlink" viewBox="0 0 120 100"><!-- Generator: Sketch 3.2.2 (9983) - http://www.bohemiancoding.com/sketch -->
 <title>Artboard</title>
 <desc>Created with Sketch.</desc>
 <g id="Page-1" fill-rule="evenodd" sketch:type="MSPage" fill="none">
  <g id="g14" transform="translate(60.5 50.5) scale(1 -1) translate(-60.5 -50.5)" fill="#fff" sketch:type="MSLayerGroup">
   <g id="g16" sketch:type="MSShapeGroup" transform="translate(0.25 0.75)">
    <g id="g102" transform="translate(.62962 .65975)">
     <path id="path104" d="m73.75 96.25c-2.645 1.981-4.83 2.112-5.425 1.915-0.594-0.199 0-1.454-0.33-1.915-0.331-0.466-1.255-0.331-1.455-0.73-0.198-0.396 0-0.991-0.661-1.718-0.66-0.727-21.159-22.283-23.47-25.191-1.917-1.586-9.585-5.09-10.447-6.08-0.858-0.993-29.49-42.159-30.412-43.506-2.18-3.18 1.1125-9.9525 6.8688-14.088 6.0522-4.3532 14.006-6.2482 16.886-2.8832 1.064 1.2374 29.921 42.255 30.561 43.401 0.636 1.144 1.323 9.547 2.163 11.891 1.947 3.163 15.241 29.772 15.699 30.643 0.461 0.866 1.087 0.883 1.391 1.203 0.309 0.323-0.135 1.149 0.19 1.616 0.325 0.47 1.733 0.683 1.681 1.307-0.169 1.884-3.24 4.135-3.24 4.135"/>
    </g>
    <g id="g106" transform="translate(40.951 79.352)">
     <path id="path108" d="m12.5 15c-0.666 0.725-0.472 1.324-0.675 1.721-0.2 0.397-1.127 0.257-1.463 0.719-0.333 0.462-0.066 1.866-0.672 2.024-1.8362 0.477-4.9925-1.676-4.9925-1.676-2.7587-1.833-3.6187-3.852-3.6313-4.482-0.0112-0.626 1.3738-0.485 1.7026-0.954 0.3262-0.467-0.1088-1.298 0.2-1.618 0.3074-0.323 0.9362-0.333 1.4024-1.2028 0.1738-0.3237 2.1663-4.2424 4.6976-9.1874 2.8562 3.055 5.9732 6.3637 8.6502 9.1987-2.895 3.0265-5.013 5.2335-5.219 5.4575"/>
    </g>
    <g id="g110" transform="translate(60.921 1.0059)">
     <path id="path112" d="m57.5 18.75c-0.814 1.42-29.9 42.451-30.765 43.441-0.869 0.991-8.583 4.458-10.513 6.037-0.76 0.941-3.452 3.842-6.7632 7.352-3.8563-7.635-7.515-14.818-9.2838-18.071 0.05625-0.095 0.11375-0.191 0.15875-0.264 0.85375-2.345 1.5912-10.769 2.2438-11.914 0.6474-1.143 29.948-42.011 30.908-43.336 2.276-3.13 9.783-2.2888 15.625 1.7625 6.14 4.26 10.603 11.142 8.389 14.992"/>
    </g>
   </g>
  </g>
 </g>
</svg>
